img/avatar-4.svg

<svg xmlns="http://www.w3.org/2000/svg" preserveAspectRatio="xMidYMid" width="33.625" height="33.657"><g fill-rule="evenodd"><path d="M16.812-.003c9.292 0 16.825 7.532 16.825 16.824 0 9.292-7.533 16.825-16.825 16.825-9.292 0-16.824-7.533-16.824-16.825C-.012 7.529 7.52-.003 16.812-.003z" fill="#fd60e5"/><path d="M25.691 14.816s-.059-2.743-.107-4.024c0 0 .277-2.873-1.861-1.735 0 0-3.588.85-6.236 6.656-.036-.107-.186-.202-.376-.249.186-.965.822-3.854 1.862-4.49a.299.299 0 0 0 .217.103.275.275 0 0 0 .281-.269.28.28 0 0 0-.281-.277.284.284 0 0 0-.281.277c0 .012.012.02.012.04-1.126.668-1.758 3.604-1.948 4.592-.036-.004-.071-.008-.115-.008-.027 0-.063.008-.087.008-.19-.988-.826-3.924-1.952-4.592.004-.02.012-.028.012-.04a.284.284 0 0 0-.277-.277.28.28 0 0 0-.284.277c0 .15.126.269.284.269a.28.28 0 0 0 .21-.103c1.055.633 1.671 3.51 1.869 4.49-.182.039-.32.11-.383.201-2.644-5.714-6.185-6.556-6.185-6.556-2.131-1.139-1.866 1.739-1.866 1.739-.047 1.292-.102 4.023-.102 4.023-.285 2.391 2.837 2.751 2.837 2.751-4.122.482-1.731 4.284-1.731 4.284 1.541 1.253 1.731 2.917 1.731 2.917.474-.348 1.194.545 1.194.545.589-.893 1.082-.66 1.082-.66 1.281-.897 2.403-2.482 3-3.431v.242c0 .122.127.237.308.3v.142a.34.34 0 0 0 .68 0v-.142c.19-.063.309-.178.309-.3v-.408c.58.933 1.731 2.609 3.066 3.546 0 0 .498-.238 1.087.644 0 0 .704-.882 1.193-.542 0 0 .186-1.656 1.736-2.913 0 0 2.383-3.794-1.736-4.28 0 0 3.123-.356 2.838-2.75z" fill="#fff"/></g></svg>

<svg xmlns="http://www.w3.org/2000/svg" xmlns:xlink="http://www.w3.org/1999/xlink" preserveAspectRatio="xMidYMid" width="33.625" height="33.657" viewBox="0 0 33.625 33.657">
  <defs>
    <style>
      .cls-1 {
        fill: #fd60e5;
      }

      .cls-1, .cls-2 {
        fill-rule: evenodd;
      }

      .cls-2 {
        fill: #fff;
      }
    </style>
  </defs>
  <g>
    <path d="M16.812,-0.003 C26.104,-0.003 33.637,7.529 33.637,16.821 C33.637,26.113 26.104,33.646 16.812,33.646 C7.520,33.646 -0.012,26.113 -0.012,16.821 C-0.012,7.529 7.520,-0.003 16.812,-0.003 Z" class="cls-1"/>
    <path d="M25.691,14.816 C25.691,14.816 25.632,12.073 25.584,10.792 C25.584,10.792 25.861,7.919 23.723,9.057 C23.723,9.057 20.135,9.907 17.487,15.713 C17.451,15.606 17.301,15.511 17.111,15.464 C17.297,14.499 17.933,11.610 18.973,10.974 C19.032,11.037 19.107,11.077 19.190,11.077 C19.344,11.077 19.471,10.958 19.471,10.808 C19.471,10.654 19.344,10.531 19.190,10.531 C19.044,10.531 18.909,10.654 18.909,10.808 C18.909,10.820 18.921,10.828 18.921,10.848 C17.795,11.516 17.163,14.452 16.973,15.440 C16.937,15.436 16.902,15.432 16.858,15.432 C16.831,15.432 16.795,15.440 16.771,15.440 C16.581,14.452 15.945,11.516 14.819,10.848 C14.823,10.828 14.831,10.820 14.831,10.808 C14.831,10.654 14.696,10.531 14.554,10.531 C14.396,10.531 14.270,10.654 14.270,10.808 C14.270,10.958 14.396,11.077 14.554,11.077 C14.633,11.077 14.712,11.037 14.764,10.974 C15.819,11.607 16.435,14.484 16.633,15.464 C16.451,15.503 16.313,15.574 16.250,15.665 C13.606,9.951 10.065,9.109 10.065,9.109 C7.934,7.970 8.199,10.848 8.199,10.848 C8.152,12.140 8.097,14.871 8.097,14.871 C7.812,17.262 10.934,17.622 10.934,17.622 C6.812,18.104 9.203,21.906 9.203,21.906 C10.744,23.159 10.934,24.823 10.934,24.823 C11.408,24.475 12.128,25.368 12.128,25.368 C12.717,24.475 13.210,24.708 13.210,24.708 C14.491,23.811 15.613,22.226 16.210,21.277 L16.210,21.519 C16.210,21.641 16.337,21.756 16.518,21.819 L16.518,21.961 C16.518,22.155 16.668,22.305 16.858,22.305 C17.044,22.305 17.198,22.155 17.198,21.961 L17.198,21.819 C17.388,21.756 17.507,21.641 17.507,21.519 L17.507,21.111 C18.087,22.044 19.238,23.720 20.573,24.657 C20.573,24.657 21.071,24.419 21.660,25.301 C21.660,25.301 22.364,24.419 22.853,24.759 C22.853,24.759 23.039,23.103 24.589,21.846 C24.589,21.846 26.972,18.052 22.853,17.566 C22.853,17.566 25.976,17.210 25.691,14.816 Z" class="cls-2"/>
  </g>
</svg>
